public/icons/tokens/sgho.svg

<svg width="38" height="38" viewBox="0 0 38 38" fill="none" xmlns="http://www.w3.org/2000/svg">
<g clip-path="url(#clip0_543_5337)">
<path d="M19 38C29.4934 38 38 29.4934 38 19C38 8.50659 29.4934 0 19 0C8.50659 0 0 8.50659 0 19C0 29.4934 8.50659 38 19 38Z" fill="url(#paint0_radial_543_5337)" style=""/>
<path d="M19 38C29.4934 38 38 29.4934 38 19C38 8.50659 29.4934 0 19 0C8.50659 0 0 8.50659 0 19C0 29.4934 8.50659 38 19 38Z" fill="url(#paint1_radial_543_5337)" style=""/>
<path d="M12.0131 16.519C12.0131 18.2277 13.3975 19.6122 15.1063 19.6122C16.815 19.6122 18.1995 18.2277 18.1995 16.519C18.1995 14.8102 16.815 13.4258 15.1063 13.4258C13.3975 13.4258 12.0131 14.8102 12.0131 16.519Z" fill="white" style="fill:white;fill-opacity:1;"/>
<path d="M19.8094 16.519C19.8094 18.2277 21.1939 19.6122 22.9026 19.6122C24.6114 19.6122 25.9958 18.2277 25.9958 16.519C25.9958 14.8102 24.6114 13.4258 22.9026 13.4258C21.1939 13.4258 19.8094 14.8102 19.8094 16.519Z" fill="white" style="fill:white;fill-opacity:1;"/>
<path d="M33.6592 31.089V20.5465H29.6818C28.8775 25.864 24.491 29.7374 19 29.7374C12.9327 29.7374 8.08518 25.009 8.08518 18.8264C8.08518 12.6438 12.9327 7.82663 19.0013 7.82663C24.2909 7.82663 28.6508 11.4886 29.6844 16.5223H33.6617C32.5736 9.36563 26.329 3.88477 19 3.88477C10.9022 3.88477 4.33838 10.5753 4.33838 18.8251C4.33838 27.0749 10.9022 33.7654 19 33.7654C24.0958 33.7654 27.6488 31.4056 29.8288 27.6892C29.8807 27.7044 29.9339 27.7158 29.9833 27.731V34.5052C31.3551 33.5324 32.5914 32.3822 33.6592 31.0877V31.089Z" fill="white" style="fill:white;fill-opacity:1;"/>
</g>
<defs>
<radialGradient id="paint0_radial_543_5337" cx="0" cy="0" r="1" gradientUnits="userSpaceOnUse" gradientTransform="translate(19) rotate(90) scale(38)">
<stop stop-color="#28D358" style="stop-color:#28D358;stop-color:color(display-p3 0.1569 0.8275 0.3451);stop-opacity:1;"/>
<stop offset="0.525" stop-color="#7CD33F" style="stop-color:#7CD33F;stop-color:color(display-p3 0.4863 0.8275 0.2471);stop-opacity:1;"/>
<stop offset="0.88" stop-color="#D3DA47" style="stop-color:#D3DA47;stop-color:color(display-p3 0.8292 0.8537 0.2768);stop-opacity:1;"/>
<stop offset="1" stop-color="#FFCE25" style="stop-color:#FFCE25;stop-color:color(display-p3 1.0000 0.8070 0.1460);stop-opacity:1;"/>
</radialGradient>
<radialGradient id="paint1_radial_543_5337" cx="0" cy="0" r="1" gradientUnits="userSpaceOnUse" gradientTransform="translate(19) rotate(90) scale(38)">
<stop stop-color="#28D358" style="stop-color:#28D358;stop-color:color(display-p3 0.1569 0.8275 0.3451);stop-opacity:1;"/>
<stop offset="0.3125" stop-color="#34C95F" style="stop-color:#34C95F;stop-color:color(display-p3 0.2039 0.7882 0.3725);stop-opacity:1;"/>
<stop offset="0.639423" stop-color="#5AB783" style="stop-color:#5AB783;stop-color:color(display-p3 0.3529 0.7176 0.5137);stop-opacity:1;"/>
<stop offset="0.817308" stop-color="#94A8D3" style="stop-color:#94A8D3;stop-color:color(display-p3 0.5804 0.6588 0.8275);stop-opacity:1;"/>
<stop offset="1" stop-color="#A3A2FF" style="stop-color:#A3A2FF;stop-color:color(display-p3 0.6384 0.6344 1.0000);stop-opacity:1;"/>
</radialGradient>
<clipPath id="clip0_543_5337">
<rect width="38" height="38" fill="white" style="fill:white;fill-opacity:1;"/>
</clipPath>
</defs>
</svg>

<svg width="38" height="38" viewBox="0 0 38 38" fill="none" xmlns="http://www.w3.org/2000/svg"><g clip-path="url(#a)"><path d="M19 38c10.493 0 19-8.507 19-19S29.493 0 19 0 0 8.507 0 19s8.507 19 19 19Z" fill="url(#b)"/><path d="M19 38c10.493 0 19-8.507 19-19S29.493 0 19 0 0 8.507 0 19s8.507 19 19 19Z" fill="url(#c)"/><path d="M12.013 16.519a3.093 3.093 0 1 0 6.185.001 3.093 3.093 0 0 0-6.185-.001Zm7.797 0a3.093 3.093 0 1 0 6.185.001 3.093 3.093 0 0 0-6.186-.001Z" fill="#fff" style="fill:#fff;fill-opacity:1"/><path d="M33.66 31.089V20.547h-3.978c-.804 5.317-5.191 9.19-10.682 9.19-6.067 0-10.915-4.728-10.915-10.91 0-6.183 4.848-11 10.916-11 5.29 0 9.65 3.662 10.683 8.695h3.978C32.574 9.366 26.329 3.885 19 3.885c-8.098 0-14.662 6.69-14.662 14.94S10.902 33.765 19 33.765c5.096 0 8.649-2.36 10.829-6.076.052.015.105.027.154.042v6.774a19.055 19.055 0 0 0 3.676-3.417v.001Z" fill="#fff" style="fill:#fff;fill-opacity:1"/></g><defs><radialGradient id="b" cx="0" cy="0" r="1" gradientUnits="userSpaceOnUse" gradientTransform="matrix(0 38 -38 0 19 0)"><stop stop-color="#28D358" style="stop-color:color(display-p3 .1569 .8275 .3451);stop-opacity:1"/><stop offset=".525" stop-color="#7CD33F" style="stop-color:color(display-p3 .4863 .8275 .2471);stop-opacity:1"/><stop offset=".88" stop-color="#D3DA47" style="stop-color:color(display-p3 .8292 .8537 .2768);stop-opacity:1"/><stop offset="1" stop-color="#FFCE25" style="stop-color:color(display-p3 1 .807 .146);stop-opacity:1"/></radialGradient><radialGradient id="c" cx="0" cy="0" r="1" gradientUnits="userSpaceOnUse" gradientTransform="matrix(0 38 -38 0 19 0)"><stop stop-color="#28D358" style="stop-color:color(display-p3 .1569 .8275 .3451);stop-opacity:1"/><stop offset=".313" stop-color="#34C95F" style="stop-color:color(display-p3 .2039 .7882 .3725);stop-opacity:1"/><stop offset=".639" stop-color="#5AB783" style="stop-color:color(display-p3 .3529 .7176 .5137);stop-opacity:1"/><stop offset=".817" stop-color="#94A8D3" style="stop-color:color(display-p3 .5804 .6588 .8275);stop-opacity:1"/><stop offset="1" stop-color="#A3A2FF" style="stop-color:color(display-p3 .6384 .6344 1);stop-opacity:1"/></radialGradient><clipPath id="a"><path fill="#fff" style="fill:#fff;fill-opacity:1" d="M0 0h38v38H0z"/></clipPath></defs></svg>
